X: 32766
T: Polska From Ornunga
R: slip jig
M: 9/8
K: Adorian
|:(A3A) c cdc|B2 G G2 B d2 B|A2 c e2 g gag|f2 d d2 f a2 f|
e2 c A2 c cdc|B2 G G2 B d2 B|A2 B c2 d e2 g|fdf e6:|
|:A2 c e2 g b3|b2 a aba f2 a|a2 g e2 c A2 c|B2 G G2 B d2 B|
A2 c e2 g b3|b2 a aba f2 a|a2 g e2 c A2 c|BGB A6:|

